icons/glyphs/glyph-networik.svg

<?xml version="1.0" encoding="UTF-8" standalone="no"?><svg height="22" viewBox="0 0 22 22" width="22" xmlns="http://www.w3.org/2000/svg"><sodipodi:namedview/><metadata><rdf:RDF><cc:Work><dc:format>image/svg+xml</dc:format><dc:type/><dc:title/></cc:Work></rdf:RDF></metadata><path d="m4.2042252.00000017a2.9590251 2.9590251 0 0 0 -2.9590417 2.95904133 2.9590251 2.9590251 0 0 0 1.9517083 2.7800038v5.2609547 5.260956a2.9590251 2.9590251 0 0 0 -1.9517083 2.780002 2.9590251 2.9590251 0 0 0 2.9590417 2.959042 2.9590251 2.9590251 0 0 0 2.9590401-2.959042 2.9590251 2.9590251 0 0 0 -.04722-.517437l4.5546417-2.630479 4.554641-2.630477a2.9590251 2.9590251 0 0 0 1.904489.696476 2.9590251 2.9590251 0 0 0 2.959042-2.959041 2.9590251 2.9590251 0 0 0 -2.959042-2.959041 2.9590251 2.9590251 0 0 0 -1.902522.6964766l-4.556605-2.6304776-4.5566097-2.6304777a2.9590251 2.9590251 0 0 0  .049188-.5174388 2.9590251 2.9590251 0 0 0 -2.9590403-2.95904133zm1.9025221 5.22160633 4.5566077 2.6304776 4.556608 2.6304779a2.9590251 2.9590251 0 0 0 -.04919.517438 2.9590251 2.9590251 0 0 0  .04722.51744l-4.554638 2.630477-4.5546416 2.630478a2.9590251 2.9590251 0 0 0 -.8971562-.515471v-5.262924-5.2609547a2.9590251 2.9590251 0 0 0  .8951901-.5174388z" fill="#fff"/></svg>

<?xml version="1.0" encoding="UTF-8" standalone="no"?>
<!-- Created with Inkscape (http://www.inkscape.org/) -->

<svg
   xmlns:dc="http://purl.org/dc/elements/1.1/"
   xmlns:cc="http://creativecommons.org/ns#"
   xmlns:rdf="http://www.w3.org/1999/02/22-rdf-syntax-ns#"
   xmlns:svg="http://www.w3.org/2000/svg"
   xmlns="http://www.w3.org/2000/svg"
   xmlns:sodipodi="http://sodipodi.sourceforge.net/DTD/sodipodi-0.dtd"
   xmlns:inkscape="http://www.inkscape.org/namespaces/inkscape"
   width="22"
   height="22"
   viewBox="0 0 22 22"
   version="1.1"
   id="svg8"
   inkscape:version="0.92+devel 15640 custom"
   sodipodi:docname="glyph-networik.svg">
  <defs
     id="defs2" />
  <sodipodi:namedview
     id="base"
     pagecolor="#002266"
     bordercolor="#ffffff"
     borderopacity="0.46666667"
     inkscape:pageopacity="0"
     inkscape:pageshadow="2"
     inkscape:zoom="26.162952"
     inkscape:cx="16.621911"
     inkscape:cy="12.794693"
     inkscape:document-units="px"
     inkscape:current-layer="svg8"
     inkscape:document-rotation="0"
     showgrid="false"
     inkscape:showpageshadow="false"
     borderlayer="true"
     units="px"
     fit-margin-top="0"
     fit-margin-left="0"
     fit-margin-right="0"
     fit-margin-bottom="0"
     inkscape:window-width="1920"
     inkscape:window-height="1051"
     inkscape:window-x="0"
     inkscape:window-y="0"
     inkscape:window-maximized="1"
     inkscape:snap-bbox="true"
     inkscape:snap-midpoints="false"
     inkscape:snap-smooth-nodes="true"
     inkscape:snap-intersection-paths="true"
     inkscape:object-paths="true"
     inkscape:snap-center="true"
     inkscape:snap-object-midpoints="true" />
  <metadata
     id="metadata5">
    <rdf:RDF>
      <cc:Work
         rdf:about="">
        <dc:format>image/svg+xml</dc:format>
        <dc:type
           rdf:resource="http://purl.org/dc/dcmitype/StillImage" />
        <dc:title></dc:title>
      </cc:Work>
    </rdf:RDF>
  </metadata>
  <path
     style="color:#000000;font-style:normal;font-variant:normal;font-weight:normal;font-stretch:normal;font-size:medium;line-height:normal;font-family:sans-serif;font-variant-ligatures:normal;font-variant-position:normal;font-variant-caps:normal;font-variant-numeric:normal;font-variant-alternates:normal;font-variant-east-asian:normal;font-feature-settings:normal;text-indent:0;text-align:start;text-decoration:none;text-decoration-line:none;text-decoration-style:solid;text-decoration-color:#000000;letter-spacing:normal;word-spacing:normal;text-transform:none;writing-mode:lr-tb;direction:ltr;text-orientation:mixed;dominant-baseline:auto;baseline-shift:baseline;text-anchor:start;white-space:normal;shape-padding:0;clip-rule:nonzero;display:inline;overflow:visible;visibility:visible;opacity:1;isolation:auto;mix-blend-mode:normal;color-interpolation:sRGB;color-interpolation-filters:linearRGB;solid-color:#000000;solid-opacity:1;vector-effect:none;fill:#ffffff;fill-opacity:1;fill-rule:nonzero;stroke:none;stroke-width:2.01466656;stroke-linecap:butt;stroke-linejoin:miter;stroke-miterlimit:4;stroke-dasharray:none;stroke-dashoffset:0;stroke-opacity:1;color-rendering:auto;image-rendering:auto;shape-rendering:auto;text-rendering:auto;enable-background:accumulate"
     d="M 4.2042252,1.65e-7 A 2.9590251,2.9590251 0 0 0 1.2451835,2.9590415 2.9590251,2.9590251 0 0 0 3.1968918,5.7390453 V 11 16.260956 A 2.9590251,2.9590251 0 0 0 1.2451835,19.040958 2.9590251,2.9590251 0 0 0 4.2042252,22 2.9590251,2.9590251 0 0 0 7.1632653,19.040958 2.9590251,2.9590251 0 0 0 7.1160453,18.523521 l 4.5546417,-2.630479 4.554641,-2.630477 A 2.9590251,2.9590251 0 0 0 18.129817,13.959041 2.9590251,2.9590251 0 0 0 21.088859,11 2.9590251,2.9590251 0 0 0 18.129817,8.040959 2.9590251,2.9590251 0 0 0 16.227295,8.7374356 L 11.67069,6.106958 7.1140803,3.4764803 A 2.9590251,2.9590251 0 0 0 7.1632683,2.9590415 2.9590251,2.9590251 0 0 0 4.204228,1.65e-7 Z M 6.1067473,5.2216065 10.663355,7.8520841 15.219963,10.482562 A 2.9590251,2.9590251 0 0 0 15.170773,11 a 2.9590251,2.9590251 0 0 0 0.04722,0.51744 l -4.554638,2.630477 -4.5546416,2.630478 A 2.9590251,2.9590251 0 0 0 5.2115572,16.262924 V 11 5.7390453 A 2.9590251,2.9590251 0 0 0 6.1067473,5.2216065 Z"
     id="path4279"
     inkscape:connector-curvature="0"
     inkscape:label="glyph" />
</svg>
